!!!OTL: ES WAR EINMAL EIN ARMER MANN
!!!ARE: Europa, Mitteleuropa, Deutschland, Rheinland, Siebengebirge; Hessen;
!!    Nassau
!!!SCT: E2109
!!!YEM: Copyright 1995, estate of Helmut Schaffrath.
**kern
*ICvox
*Ivox
*M4/4
*k[f#]
*G:
{8g
8a
=1
4b
4b
4b
8a
8b
=2
4cc
4cc
4cc}
{4b
=3
4a
4a
4a
8g
8a
=4
4b
4b
4b}
{8g
8a
=5
4b
4b
8b
8a
4a
=6
2g
4r}
{8g
8a
=7
4b
4b
8b
8a
4a
=8
2g
4r}
==
!!!AGN: geistlich, Heiligen - Lied, Legende
!!!ONB: ESAC (Essen Associative Code) Database: ERK3
!!!AMT: simple quadruple
!!!AIN: vox
!!!EED: Helmut Schaffrath
!!!EEV: 1.0
*-
